picto/emergency-window-with-escape-ladder-right.svg

<svg class="color-immutable" width="24" height="24" viewBox="0 0 24 24" fill="none" xmlns="http://www.w3.org/2000/svg"><path d="M0 22.5V1.5C0 0.675 0.675 0 1.5 0H22.5C23.325 0 24 0.675 24 1.5V22.5C24 23.325 23.325 24 22.5 24H1.5C0.675 24 0 23.325 0 22.5Z" fill="#237F52"/><path d="M14.924 5.25C15.484 5.25 15.937 5.703 15.937 6.263C15.937 6.822 15.483 7.276 14.924 7.276C14.366 7.276 13.912 6.822 13.912 6.263C13.913 5.703 14.366 5.25 14.924 5.25Z" fill="white"/><path d="M7.77905 12L12.1821 7.596H11.1531L9.70905 9.043C9.64005 9.111 9.54805 9.149 9.45105 9.149C9.25005 9.149 9.08705 8.986 9.08705 8.786C9.08705 8.689 9.12505 8.597 9.19405 8.529L10.7261 6.997C10.8231 6.9 10.9561 6.844 11.0931 6.844H12.9081C13.6261 6.844 14.2081 7.426 14.2081 8.143V9.961H15.6881C15.9041 9.961 16.0781 10.135 16.0781 10.35C16.0781 10.566 15.9041 10.74 15.6881 10.74H13.8441C13.6291 10.74 13.4541 10.566 13.4541 10.35V8.896L11.7461 10.605L13.3021 12.161C13.4001 12.26 13.4541 12.391 13.4541 12.53V15.675C13.4541 15.962 13.2221 16.195 12.9351 16.195C12.6481 16.195 12.4151 15.962 12.4151 15.675V12.818L10.4591 10.863L9.32205 12H7.77905Z" fill="white"/><path d="M13.125 11.586L12.281 10.742V10.467L13.125 9.623V11.586Z" fill="white"/><path d="M13.125 3V6.578C13.054 6.568 12.982 6.563 12.909 6.563H12.282V3.844H3.844V12.282H11.482L12.135 12.935V13.126H3V3H13.125Z" fill="white"/><path d="M20.5869 3.002C20.3919 3.022 20.2499 3.197 20.2499 3.393V4.313H15.7499C15.7479 4.313 15.7469 4.312 15.7469 4.31V3.395C15.7469 3.198 15.6039 3.02 15.4079 3.001C15.1859 2.98 14.9969 3.156 14.9969 3.374V4.971C15.2809 4.987 15.5409 5.093 15.7469 5.263V4.69C15.7469 4.688 15.7479 4.687 15.7499 4.687H20.2499V7.312H15.7499C15.7479 7.312 15.7469 7.311 15.7469 7.309V7.261C15.5409 7.431 15.2809 7.537 14.9969 7.553V9.68H15.6879C15.7079 9.68 15.7279 9.681 15.7469 9.683V7.69C15.7469 7.688 15.7479 7.687 15.7499 7.687H20.2499V10.312H16.3569C16.3579 10.325 16.3589 10.337 16.3589 10.35C16.3589 10.473 16.3249 10.588 16.2669 10.687H20.2499V13.312H15.7499C15.7479 13.312 15.7469 13.311 15.7469 13.309V11.018C15.7279 11.02 15.7079 11.021 15.6879 11.021H14.9969V20.604C14.9969 20.801 15.1399 20.979 15.3359 20.998C15.5579 21.019 15.7469 20.843 15.7469 20.625V19.69C15.7469 19.688 15.7479 19.687 15.7499 19.687H20.2499V20.607C20.2499 20.803 20.3919 20.978 20.5869 20.998C20.8099 21.021 20.9999 20.844 20.9999 20.625V3.375C20.9999 3.156 20.8099 2.979 20.5869 3.002ZM20.2499 19.312H15.7499C15.7479 19.312 15.7469 19.311 15.7469 19.309V16.69C15.7469 16.688 15.7479 16.687 15.7499 16.687H20.2499V19.312ZM20.2499 16.312H15.7499C15.7479 16.312 15.7469 16.311 15.7469 16.309V13.69C15.7469 13.688 15.7479 13.687 15.7499 13.687H20.2499V16.312Z" fill="white"/></svg>

<svg class="color-immutable" width="24" height="24" viewBox="0 0 24 24" fill="none" xmlns="http://www.w3.org/2000/svg"><g clip-path="url(#a)"><path d="M0 22.5v-21C0 .675.675 0 1.5 0h21c.825 0 1.5.675 1.5 1.5v21c0 .825-.675 1.5-1.5 1.5h-21C.675 24 0 23.325 0 22.5Z" fill="#237F52"/><path d="M14.924 5.25a1.012 1.012 0 1 1 .001 2.025 1.012 1.012 0 0 1-.001-2.025ZM7.779 12l4.403-4.404h-1.029L9.71 9.043a.364.364 0 0 1-.515-.514l1.532-1.532a.522.522 0 0 1 .367-.153h1.815a1.3 1.3 0 0 1 1.3 1.299v1.818h1.48a.389.389 0 1 1 0 .779h-1.844a.39.39 0 0 1-.39-.39V8.896l-1.708 1.709 1.556 1.556c.098.099.152.23.152.369v3.145a.52.52 0 1 1-1.039 0v-2.857l-1.956-1.955L9.322 12H7.78Z" fill="#fff"/><path d="m13.125 11.586-.844-.844v-.275l.844-.844v1.963Z" fill="#fff"/><path d="M13.125 3v3.578a1.547 1.547 0 0 0-.216-.015h-.627V3.844H3.844v8.438h7.638l.653.653v.191H3V3h10.125ZM20.587 3.002a.387.387 0 0 0-.337.391v.92h-4.5c-.002 0-.003-.001-.003-.003v-.915c0-.197-.143-.375-.34-.394a.376.376 0 0 0-.41.373v1.597c.284.016.544.122.75.292V4.69c0-.002 0-.003.003-.003h4.5v2.625h-4.5c-.002 0-.003-.001-.003-.003v-.048c-.206.17-.466.276-.75.292V9.68h.69l.06.003V7.69c0-.002 0-.003.003-.003h4.5v2.625h-3.893l.002.038a.665.665 0 0 1-.092.337h3.983v2.625h-4.5c-.002 0-.003-.001-.003-.003v-2.291a.568.568 0 0 1-.06.003h-.69v9.583c0 .197.143.375.339.394a.376.376 0 0 0 .41-.373v-.935c0-.002.002-.003.004-.003h4.5v.92c0 .196.142.371.337.391a.375.375 0 0 0 .413-.373V3.375a.375.375 0 0 0-.413-.373Zm-.337 16.31h-4.5c-.002 0-.003-.001-.003-.003V16.69c0-.002 0-.003.003-.003h4.5v2.625Zm0-3h-4.5c-.002 0-.003-.001-.003-.003V13.69c0-.002 0-.003.003-.003h4.5v2.625Z" fill="#fff"/></g><defs><clipPath id="a"><path fill="#fff" d="M0 0h24v24H0z"/></clipPath></defs></svg>
